X: 767
T: Biangong dui
L: 1/8
M: 2/4
K: G
d d e c [I:setbarnb 1]| 
d ed2 | 
A d c d | 
F GA2 | 
d d e c | 
d ed2 | 
A c B D | 
=F GA2 | 
d Bd2 | 
d e d c | 
d2G A | 
c2A G | 
G A G E | 
D4 |]

@@@ Tune index: 9641
